X:454
T:Marli Water-works
C:Matthew Welch, 1767
L:1/8
M:6/8
S:Colin Hume's website,  colinhume.com  - chords can also be printed below the stave.
Q:3/8=112
K:F
P:A
|: "F"FAc "Bb"fed | "C7"cdB "F"AGF | "C"EGc "/"EGc | "G7"DEF "C"EDC |\
"F"FAc "Bb"fed | "C7"cdB "F"AGF | "C"cde "Dm"fga | "G7"gfd "C"c3 :|
P:B
|: "C"cde "F"fga | "Gm"bag "Dm"f3 | "Gm"bag "Bb"fed | "C"cdB "F"AGF |\
"C"EGc "/"EGc | "G7"DEF "C"E3 | "Am"CDE "Bb"FBA | "C7"GFE "F"F3 :|

